Papirus/24x24/apps/app.organicmaps.desktop.svg

<svg width="24" height="24" version="1.1" xmlns="http://www.w3.org/2000/svg">
 <rect transform="matrix(0 -.5 -.5 0 0 0)" x="-45" y="-44" width="40" height="40" rx="20" ry="20" style="opacity:.2"/>
 <rect transform="matrix(0 -.35714285 -.35714285 0 .57142855 .57142855)" x="-60" y="-60" width="56" height="56" rx="28" ry="28" style="fill:#00783b"/>
 <path d="m12 19.5-4-5c-0.6446817-0.805852-1-1.8888-1-3 0-2.7614237 2.2385763-5 5-5 2.761424 0 5 2.2385763 5 5 0 1.126218-0.346756 2.183445-1 3zm2-8c0-1.123347-0.887273-2-2-2s-2 0.876653-2 2 0.876653 2 2 2 2-0.876653 2-2z" style="opacity:.2"/>
 <path d="m12 19-4-5c-0.6446817-0.805852-1-1.8888-1-3 0-2.7614237 2.2385763-5 5-5 2.761424 0 5 2.2385763 5 5 0 1.126218-0.346756 2.183445-1 3zm2-8c0-1.1233469-0.887273-2-2-2s-2 0.8766531-2 2c0 1.123347 0.876653 2 2 2s2-0.876653 2-2z" style="fill:#e4e4e4"/>
 <path transform="matrix(.35714285 0 0 .35714285 .57142855 .57142855)" d="m32 4c-15.512 0-28 12.488-28 28v0.35c0-15.512 12.488-26.95 28-26.95s28 11.438 28 26.95v-0.35c0-15.512-12.488-28-28-28z" style="fill:#ffffff;opacity:.2"/>
</svg>

<svg xmlns="http://www.w3.org/2000/svg" width="24" height="24" version="1.1">
 <rect style="opacity:0.2" width="20" height="20" x="2" y="2.5" rx="10" ry="10"/>
 <rect style="fill:#00783b" width="20" height="20" x="2" y="2" rx="10" ry="10"/>
 <path style="opacity:0.2" d="M 12,19.5 8,14.5 C 7.3553,13.694 7,12.611 7,11.5 7,8.7386 9.2386,6.5 12,6.5 14.761,6.5 17,8.7386 17,11.5 17,12.626 16.653,13.683 16,14.5 Z M 14,11.5 C 14,10.377 13.113,9.5 12,9.5 10.887,9.5 10,10.377 10,11.5 10,12.623 10.877,13.5 12,13.5 13.123,13.5 14,12.623 14,11.5 Z"/>
 <path style="fill:#e4e4e4" d="M 12,19 8,14 C 7.3553,13.194 7,12.111 7,11 7,8.2386 9.2386,6 12,6 14.761,6 17,8.2386 17,11 17,12.126 16.653,13.183 16,14 Z M 14,11 C 14,9.8767 13.113,9 12,9 10.887,9 10,9.8767 10,11 10,12.123 10.877,13 12,13 13.123,13 14,12.123 14,11 Z"/>
 <path style="fill:#ffffff;opacity:0.2" d="M 12 2 C 6.46 2 2 6.46 2 12 C 2 12.084 2.0038 12.167 2.0059 12.25 C 2.1382 6.8269 6.5439 2.5 12 2.5 C 17.456 2.5 21.862 6.8269 21.994 12.25 C 21.996 12.167 22 12.084 22 12 C 22 6.46 17.54 2 12 2 z"/>
</svg>
